!!!!SEGMENT: pl-sa--l-1643--057_anonim--verbum-caro-factum-est.krn
!!!cenid: 16xx:1415
!!!COM: Anonim
!!!COM-rismid: pe30004985
!!!CDT:
!!!CNT:
!!!OTL: Verbum caro factum est
!!!PDT:
!!!AGN: Sacred
!!!SMS-siglum: PL-SA
!!!SMS-shelfmark: L 1643
!!!SMS-shelfwork: 057 W
!!!SMS-variant:
!!!SMS-altvar:
!!!NIFC-rismid: 1001064776
!!!URL-scan: http://repozytorium.nifc.pl/skany/pl-sa-nut--l1643
!!!ONB-nifc: UWAGA: 8 ksiąg. Primi chori: 1mus Cantus (91-92), C 2dus (90), C 3tius (87-89), Bassus (85-86); Secondi chori: Primus Cantus (83-84), C 2dus (86-87), Altus (84), Bassus (85-86). UWAGA: Nie dodawać pustych linii, chyba że w rękopisie pojawiają się dodatkowe oznaczenia dotyczące pełnej obsady (a 4, a 8 itp.)
!!!key:
**kern	**text	**kern	**text	**kern	**text	**kern	**text	**kern	**text	**kern	**text	**kern	**text	**kern	**text
*part8	*part8	*part7	*part7	*part6	*part6	*part5	*part5	*part4	*part4	*part3	*part3	*part2	*part2	*part1	*part1
*staff8	*staff8	*staff7	*staff7	*staff6	*staff6	*staff5	*staff5	*staff4	*staff4	*staff3	*staff3	*staff2	*staff2	*staff1	*staff1
*Iempty	*	*Iempty	*	*Iempty	*	*Iempty	*	*Iempty	*	*Iempty	*	*Iempty	*	*Iempty	*
*I"Baſsus 2di Chori.	*	*I"Altus secundi Chori.	*	*I"Cantus 2dus Secundi Chori.	*	*I"Primus Cantus 2di Chori	*	*I"Bassus Primi Chori.	*	*I"Cantus 3tius Primi Chori	*	*I"Cantus 2dus Primi Chori.	*	*I"Im(us) Cantus Primi Chori	*
*I'Coro 2 B	*	*I'Coro 2 A	*	*I'Coro 2 C 2	*	*I'Coro 2 C 1	*	*I'Coro 1 B	*	*I'Coro 1 C 3	*	*I'Coro 1 C 2	*	*I'Coro 1 C 1	*
*clefC3	*	*clefC2	*	*clefC1	*	*clefG2	*	*clefC3	*	*clefC2	*	*clefC1	*	*clefG2	*
*k[]	*	*k[]	*	*k[]	*	*k[]	*	*k[]	*	*k[]	*	*k[]	*	*k[]	*
*a:	*	*a:	*	*a:	*	*a:	*	*a:	*	*a:	*	*a:	*	*a:	*
*M2/2	*	*M2/2	*	*M2/2	*	*M2/2	*	*M2/2	*	*M2/2	*	*M2/2	*	*M2/2	*
*met(c|)	*	*met(c|)	*	*met(c|)	*	*met(c|)	*	*met(c|)	*	*met(c|)	*	*met(c|)	*	*met(c|)	*
=1-	=1-	=1-	=1-	=1-	=1-	=1-	=1-	=1-	=1-	=1-	=1-	=1-	=1-	=1-	=1-
!LO:TX:t=Pro Festo Natiuitis.:color=red	!	!LO:TX:t=Pro Festo Natiuitatis D(omi)ni.:color=red	!	!	!	!	!	!LO:TX:t=Pro Festo Nati\nuitatis Domini.:color=red	!	!LO:TX:t=Pro Festo Natiuitatis D(omi)ni:color=red	!	!LO:TX:t=Pro Festo Natiuitatis\nChristi.:color=red	!	!LO:TX:t=De Natiuitate\nD(omi)ni. Intonatio.:color=red	!
00r	.	00r	.	00r	.	00r	.	00r	.	00r	.	00r	.	2.ee\	Ver-
.	.	.	.	.	.	.	.	.	.	.	.	.	.	4ee\	-bum
=2-	=2-	=2-	=2-	=2-	=2-	=2-	=2-	=2-	=2-	=2-	=2-	=2-	=2-	=2-	=2-
.	.	.	.	.	.	.	.	.	.	.	.	.	.	2ee\	ca-
.	.	.	.	.	.	.	.	.	.	.	.	.	.	2dd\	-ro
=3-	=3-	=3-	=3-	=3-	=3-	=3-	=3-	=3-	=3-	=3-	=3-	=3-	=3-	=3-	=3-
.	.	.	.	.	.	.	.	.	.	.	.	.	.	2dd\	fa-
.	.	.	.	.	.	.	.	.	.	.	.	.	.	2cc\	-ctum
=4-	=4-	=4-	=4-	=4-	=4-	=4-	=4-	=4-	=4-	=4-	=4-	=4-	=4-	=4-	=4-
*	*	*	*	*	*	*	*	*	*	*	*	*	*	*custos:gg	*
.	.	.	.	.	.	.	.	.	.	.	.	.	.	1b	eſt
=5-	=5-	=5-	=5-	=5-	=5-	=5-	=5-	=5-	=5-	=5-	=5-	=5-	=5-	=5-	=5-
!	!	!	!	!	!	!	!	!	!	!	!	!	!	!LO:LB:g=original	!
2.c/	Ver-	2.e/	Ver-	2.cc\	Ver-	2.ee\	Ver-	2.c/	Ver-	2.g\	Ver-	2.cc\	Ver-	2.gg\	Ver-
4c/	-bum	4e/	-bum	4cc\	-bum	4ee\	-bum	4c/	-bum	4g\	-bum	4cc\	-bum	4gg\	-bum
=6-	=6-	=6-	=6-	=6-	=6-	=6-	=6-	=6-	=6-	=6-	=6-	=6-	=6-	=6-	=6-
2c/	ca-	2.g\	ca-	2cc\	ca-	2ee\	ca-	2c/	ca-	2e/	ca-	2g/	ca-	2gg\	ca-
!	!	!	!	!	!	!	!	!	!	!LO:SIC:v:s:l=-ro	!	!	!	!	!
2g\	-ro	.	.	2b\	-ro	2ee\	-ro	2G/	-ro	2g\	-ra	2g/	-ro	2gg\	-ro
.	.	4d/	-ro	.	.	.	.	.	.	.	.	.	.	.	.
=7-	=7-	=7-	=7-	=7-	=7-	=7-	=7-	=7-	=7-	=7-	=7-	=7-	=7-	=7-	=7-
*	*	*	*	*	*	*	*	*custos:A	*	*	*	*	*	*	*
2d\	fa-	2.d/	fa-	2a\	fa-	2dd\	fa-	2d\	fa-	2a\	fa-	2a\	fa-	2ff\	fa-
*	*	*	*	*	*	*	*	*	*	*	*	*custos:b	*	*	*
!	!	!	!	!	!	!	!	!LO:LB:g=original	!	!	!	!	!	!	!
2a\	-ctum	.	.	2a\	-ctum	2cc\	-ctum	2A/	-ctum	2e/	-ctum	2a\	-ctum	2ee\	-ctu(m)
.	.	4e/	-ctum	.	.	.	.	.	.	.	.	.	.	.	.
=8-	=8-	=8-	=8-	=8-	=8-	=8-	=8-	=8-	=8-	=8-	=8-	=8-	=8-	=8-	=8-
!	!	!	!	!LO:TX:t=P:problem=# below	!	!	!	!	!	!	!	!LO:LB:g=original	!	!	!
1e	eſt.	1e	eſt	1g#X	eſt	1b	eſt	1e	eſt	1e	eſt	1b	eſt	1ee	eſt
=9-	=9-	=9-	=9-	=9-	=9-	=9-	=9-	=9-	=9-	=9-	=9-	=9-	=9-	=9-	=9-
00r	.	00r	.	00r	.	00r	.	00r	.	00r	.	00r	.	1cc	Et
=10-	=10-	=10-	=10-	=10-	=10-	=10-	=10-	=10-	=10-	=10-	=10-	=10-	=10-	=10-	=10-
.	.	.	.	.	.	.	.	.	.	.	.	.	.	2dd\	ha-
.	.	.	.	.	.	.	.	.	.	.	.	.	.	2dd\	-bi-
=11-	=11-	=11-	=11-	=11-	=11-	=11-	=11-	=11-	=11-	=11-	=11-	=11-	=11-	=11-	=11-
.	.	.	.	.	.	.	.	.	.	.	.	.	.	1ee	-ta-
=12-	=12-	=12-	=12-	=12-	=12-	=12-	=12-	=12-	=12-	=12-	=12-	=12-	=12-	=12-	=12-
.	.	.	.	.	.	.	.	.	.	.	.	.	.	2dd\	-uit
.	.	.	.	.	.	.	.	.	.	.	.	.	.	2cc\	in
=13-	=13-	=13-	=13-	=13-	=13-	=13-	=13-	=13-	=13-	=13-	=13-	=13-	=13-	=13-	=13-
0r	.	0r	.	0r	.	0r	.	0r	.	0r	.	0r	.	1b	no-
=14-	=14-	=14-	=14-	=14-	=14-	=14-	=14-	=14-	=14-	=14-	=14-	=14-	=14-	=14-	=14-
.	.	.	.	.	.	.	.	.	.	.	.	.	.	1a	-bis
=15-	=15-	=15-	=15-	=15-	=15-	=15-	=15-	=15-	=15-	=15-	=15-	=15-	=15-	=15-	=15-
1c	Et	1e	Et	1cc	Et	1cc	Et	1c	et	1g	et	1g	Et	1ee	Et
=16-	=16-	=16-	=16-	=16-	=16-	=16-	=16-	=16-	=16-	=16-	=16-	=16-	=16-	=16-	=16-
2g\	ha-	2g\	ha-	2b\	ha-	2dd\	ha-	2G/	ha-	2g\	ha-	2b\	ha-	2dd\	ha-
2g\	-bi-	2d/	-bi-	2b\	-bi-	2dd\	-bi-	2G/	-bi-	2g\	-bi-	2dd\	-bi-	2dd\	-bi-
=17-	=17-	=17-	=17-	=17-	=17-	=17-	=17-	=17-	=17-	=17-	=17-	=17-	=17-	=17-	=17-
1d	-ta-	1d	-ta-	1a	-ta-	1dd	-ta-	1d	-ta-	1a	-ta-	1dd	-ta-	1ff	-ta-
=18-	=18-	=18-	=18-	=18-	=18-	=18-	=18-	=18-	=18-	=18-	=18-	=18-	=18-	=18-	=18-
2d\	-uit	2a\	-uit	2a\	-uit	2dd\	-uit	2d\	-uit	2a\	-uit	2a\	-uit	2ff\	-uit
2a\	in	2a\	in	2.a\	in	2cc\	in	2A/	in	2e/	in	2a\	in	2ee\	in
=19-	=19-	=19-	=19-	=19-	=19-	=19-	=19-	=19-	=19-	=19-	=19-	=19-	=19-	=19-	=19-
*	*	*	*	*	*	*	*	*	*	*	*	*	*	*custos:ee	*
1e	no-	1e	no-	.	.	1b	no-	1e	no-	1e	no-	1b	no-	1ee	no-
.	.	.	.	8gny/L	.	.	.	.	.	.	.	.	.	.	.
.	.	.	.	8f/J	.	.	.	.	.	.	.	.	.	.	.
!	!	!	!	!LO:TX:t=P:problem=# below	!	!	!	!	!	!	!	!	!	!	!
.	.	.	.	2g#X/	no-	.	.	.	.	.	.	.	.	.	.
=20-	=20-	=20-	=20-	=20-	=20-	=20-	=20-	=20-	=20-	=20-	=20-	=20-	=20-	=20-	=20-
*	*	*	*	*	*	*custos:cc	*	*	*	*	*	*	*	*	*
!	!	!	!	!	!	!	!	!	!	!	!	!	!	!	!
*custos:c	*	*	*	*custos:cc	*	*	*	*	*	*	*	*	*	*	*
!	!	!	!	!	!	!LO:TX:t=P:problem=# below	!	!	!	!	!	!	!	!LO:LB:g=original	!
1a	-bis	1e	-bis	1a	-bis.	1cc#X	-bis	1A	-bis	1a	-bis	1a	-bis	1ee	-bis
=21-	=21-	=21-	=21-	=21-	=21-	=21-	=21-	=21-	=21-	=21-	=21-	=21-	=21-	=21-	=21-
*	*	*custos:e	*	*	*	*	*	*	*	*	*	*	*	*	*
!	!	!	!	!	!	!LO:LB:g=original	!	!	!	!	!	!	!	!	!
!LO:LB:g=original	!	!	!	!LO:LB:g=original	!	!LO:TX:t=P:problem=kreska pseudotaktowa przerywana	!	!	!	!	!	!	!	!	!
00r	.	00r	.	00r	.	00r	.	00r	.	00r	.	00r	.	1cc	Et
=22-	=22-	=22-	=22-	=22-	=22-	=22-	=22-	=22-	=22-	=22-	=22-	=22-	=22-	=22-	=22-
.	.	.	.	.	.	.	.	.	.	.	.	.	.	2dd\	Vi-
.	.	.	.	.	.	.	.	.	.	.	.	.	.	2dd\	-di-
=23-	=23-	=23-	=23-	=23-	=23-	=23-	=23-	=23-	=23-	=23-	=23-	=23-	=23-	=23-	=23-
.	.	.	.	.	.	.	.	.	.	.	.	.	.	2ee\	-mus
.	.	.	.	.	.	.	.	.	.	.	.	.	.	2.ff\	glo-
=24-	=24-	=24-	=24-	=24-	=24-	=24-	=24-	=24-	=24-	=24-	=24-	=24-	=24-	=24-	=24-
.	.	.	.	.	.	.	.	.	.	.	.	.	.	.	.
.	.	.	.	.	.	.	.	.	.	.	.	.	.	4ff\	-ri-
.	.	.	.	.	.	.	.	.	.	.	.	.	.	2ee\	-am
=25-	=25-	=25-	=25-	=25-	=25-	=25-	=25-	=25-	=25-	=25-	=25-	=25-	=25-	=25-	=25-
*	*	*	*	*	*	*	*	*	*	*custos:b	*	*	*	*	*
!	!	!LO:LB:g=original	!	!	!	!	!	!	!	!	!	!	!	!	!
0r	.	0r	.	0r	.	0r	.	0r	.	0r	.	0r	.	1dd	e-
=26-	=26-	=26-	=26-	=26-	=26-	=26-	=26-	=26-	=26-	=26-	=26-	=26-	=26-	=26-	=26-
.	.	.	.	.	.	.	.	.	.	.	.	.	.	1cc,	-ius,
=27-	=27-	=27-	=27-	=27-	=27-	=27-	=27-	=27-	=27-	=27-	=27-	=27-	=27-	=27-	=27-
!	!	!	!	!	!	!	!	!	!	!LO:LB:g=original	!	!	!	!	!
1c	Et	1e	Et	1cc	Et	1ccny	Et	1c	Et	1g	E[t]	1g	Et	1ee	Et
=28-	=28-	=28-	=28-	=28-	=28-	=28-	=28-	=28-	=28-	=28-	=28-	=28-	=28-	=28-	=28-
2c/	Vi-	2e/	Vi-	2cc\	Vi-	2cc\	Vi-	2c/	Vi-	2g\	Vi-	2cc\	Vi-	2ee\	Vi-
2c/	-di-	2g\	-di-	2gny/	-di-	2ee\	-di-	2c/	-di-	2g\	-di-	2cc\	-di-	2cc\	-di-
=29-	=29-	=29-	=29-	=29-	=29-	=29-	=29-	=29-	=29-	=29-	=29-	=29-	=29-	=29-	=29-
2g\	-mus	2d/	-mus	2g/	-mus	2dd\	-mus	2G/	-mus	2g\	-mus	2b\	-mus	2dd\	-mus
2.d\	glo-	2.d/	glo-	2.a\	glo-	2.dd\	glo-	2.d\	glo-	2.a\	glo-	2.dd\	glo-	2.ff\	glo-
=30-	=30-	=30-	=30-	=30-	=30-	=30-	=30-	=30-	=30-	=30-	=30-	=30-	=30-	=30-	=30-
.	.	.	.	.	.	.	.	.	.	.	.	.	.	.	.
4d\	-ri-	4d/	-ri-	4b\	-ri-	4a/	-ri-	4d\	-ri-	4a\	-ri-	4dd\	-ri-	4ff\	-ri-
2g\	-am	2g\	-am	2.cc\	-am	2cc\	-am	2c/	-am	2e/	-am	2ee\	-am	2ee\	-am
=31-	=31-	=31-	=31-	=31-	=31-	=31-	=31-	=31-	=31-	=31-	=31-	=31-	=31-	=31-	=31-
1g	e-	1g	e-	.	.	1dd	e-	1G	e-	1g	e-	2b\	e-	1dd	e-
.	.	.	.	8b\L	.	.	.	.	.	.	.	.	.	.	.
.	.	.	.	8a\J	.	.	.	.	.	.	.	.	.	.	.
.	.	.	.	2b\	e-	.	.	.	.	.	.	2g/	.	.	.
=32-	=32-	=32-	=32-	=32-	=32-	=32-	=32-	=32-	=32-	=32-	=32-	=32-	=32-	=32-	=32-
*	*	*	*	*	*	*	*	*custos:c	*	*	*	*custos:cc	*	*	*
1c	-ius	1e	-ius	1cc	-ius	1cc	-ius	1c	-ius	1g	-ius	1g	-ius.	1ee,	-ius,
=33-	=33-	=33-	=33-	=33-	=33-	=33-	=33-	=33-	=33-	=33-	=33-	=33-	=33-	=33-	=33-
!	!	!	!	!	!	!	!	!LO:LB:g=original	!	!	!	!LO:LB:g=original	!	!	!
00r	.	00r	.	00r	.	00r	.	00r	.	00r	.	00r	.	2.ee\	Glo-
.	.	.	.	.	.	.	.	.	.	.	.	.	.	4ee\	-ri-
=34-	=34-	=34-	=34-	=34-	=34-	=34-	=34-	=34-	=34-	=34-	=34-	=34-	=34-	=34-	=34-
!	!	!	!	!	!	!	!	!	!	!	!	!	!	!LO:LB:g=original	!
.	.	.	.	.	.	.	.	.	.	.	.	.	.	1ee	-am
=35-	=35-	=35-	=35-	=35-	=35-	=35-	=35-	=35-	=35-	=35-	=35-	=35-	=35-	=35-	=35-
.	.	.	.	.	.	.	.	.	.	.	.	.	.	2dd\	qua-
.	.	.	.	.	.	.	.	.	.	.	.	.	.	2cc\	-si
=36-	=36-	=36-	=36-	=36-	=36-	=36-	=36-	=36-	=36-	=36-	=36-	=36-	=36-	=36-	=36-
.	.	.	.	.	.	.	.	.	.	.	.	.	.	2.dd\	V-
.	.	.	.	.	.	.	.	.	.	.	.	.	.	4dd\	-ni
=37-	=37-	=37-	=37-	=37-	=37-	=37-	=37-	=37-	=37-	=37-	=37-	=37-	=37-	=37-	=37-
00r	.	00r	.	00r	.	00r	.	00r	.	00r	.	00r	.	2.ee\	ge-
.	.	.	.	.	.	.	.	.	.	.	.	.	.	4ee\	-ni-
=38-	=38-	=38-	=38-	=38-	=38-	=38-	=38-	=38-	=38-	=38-	=38-	=38-	=38-	=38-	=38-
!	!	!	!	!	!	!	!	!	!	!	!	!	!	!LO:TX:t=P:problem=niewyraźne źródło	!
.	.	.	.	.	.	.	.	.	.	.	.	.	.	2dd\	-ti
.	.	.	.	.	.	.	.	.	.	.	.	.	.	2cc\	a
=39-	=39-	=39-	=39-	=39-	=39-	=39-	=39-	=39-	=39-	=39-	=39-	=39-	=39-	=39-	=39-
.	.	.	.	.	.	.	.	.	.	.	.	.	.	1b	Pa-
=40-	=40-	=40-	=40-	=40-	=40-	=40-	=40-	=40-	=40-	=40-	=40-	=40-	=40-	=40-	=40-
.	.	.	.	.	.	.	.	.	.	.	.	.	.	1a	-tre
=41-	=41-	=41-	=41-	=41-	=41-	=41-	=41-	=41-	=41-	=41-	=41-	=41-	=41-	=41-	=41-
1.c	Ple-	1.e	Ple-	1.cc	Pl[e]-	1.cc	Ple-	1.c	Ple-	1.g	Ple-	1.cc	Ple-	2.ee\	Ple-
.	.	.	.	.	.	.	.	.	.	.	.	.	.	4ff\	.
=42-	=42-	=42-	=42-	=42-	=42-	=42-	=42-	=42-	=42-	=42-	=42-	=42-	=42-	=42-	=42-
.	.	.	.	.	.	.	.	.	.	.	.	.	.	2gg\	.
2c/	-num	2e/	-num	2cc\	-num	2cc\	-num	2c/	-num	2g\	-num	2g/	-num	2ee\	-num
=43-	=43-	=43-	=43-	=43-	=43-	=43-	=43-	=43-	=43-	=43-	=43-	=43-	=43-	=43-	=43-
2.g\	gra-	2.g\	gra-	2.b\	gra-	2.dd\	gra-	2.G/	gra-	2.g\	gra-	2.b\	gra-	2.dd\	gra-
4g\	-ti-	4d/	-ti-	4b\	-ti-	4dd\	-ti-	4G/	-ti-	4g\	-ti-	4b\	-ti-	4dd\	-ti-
=44-	=44-	=44-	=44-	=44-	=44-	=44-	=44-	=44-	=44-	=44-	=44-	=44-	=44-	=44-	=44-
2c/	-ae	2g\	-ae	2cc\	-ae	2ee\	-ae	2c/	-ae	2g\	-ae	2g/	-ae	2cc\	-ae
2r	.	2r	.	2r	.	2r	.	2c/	et	2g\	et	2cc\	et	2ee\	et
=45-	=45-	=45-	=45-	=45-	=45-	=45-	=45-	=45-	=45-	=45-	=45-	=45-	=45-	=45-	=45-
1r	.	1r	.	1r	.	1r	.	4f\	Ve-	4a\	Ve-	4cc\	Ve-	4ff\	Ve-
.	.	.	.	.	.	.	.	4c/	-ri-	4g\	-ri-	4cc\	-ri-	4ee\	-ri-
.	.	.	.	.	.	.	.	2g\	-ta-	2g\	-ta-	2b\	-ta-	2dd\	-ta-
=46-	=46-	=46-	=46-	=46-	=46-	=46-	=46-	=46-	=46-	=46-	=46-	=46-	=46-	=46-	=46-
*	*	*	*	*	*	*	*	*	*	*	*	*	*	*custos:gg	*
2r	.	2r	.	2r	.	2r	.	2c/	-tis,	2g\	-tis.	2cc\	-tis,	2ee\	-tis,
*	*	*	*	*	*ij	*	*	*	*	*	*	*	*	*	*
!	!	!	!	!	!	!	!	!	!	!	!	!	!	!LO:LB:g=original	!
1c\	Ple-	1g\	Ple-	1cc\	Pl[e]-	1ee\	Ple-	2r	.	2r	.	2r	.	2r	.
=47-	=47-	=47-	=47-	=47-	=47-	=47-	=47-	=47-	=47-	=47-	=47-	=47-	=47-	=47-	=47-
.	.	.	.	.	.	.	.	0r	.	0r	.	0r	.	0r	.
*	*	*	*	*	*	*custos:dd	*	*	*	*	*	*	*	*	*
2c/	-num	2g\	-num	2cc\	-num	2ee\	-num	.	.	.	.	.	.	.	.
=48-	=48-	=48-	=48-	=48-	=48-	=48-	=48-	=48-	=48-	=48-	=48-	=48-	=48-	=48-	=48-
!	!	!	!	!	!	!LO:LB:g=original	!	!	!	!	!	!	!	!	!
2.G/	gra-	2.g\	gra-	2.b\	gra-	2.dd\	gra-	.	.	.	.	.	.	.	.
*custos:c	*	*	*	*	*	*	*	*	*	*	*	*	*	*	*
4G/	-ti-	4g\	-ti-	4b\	-ti-	4dd\	-ti-	.	.	.	.	.	.	.	.
=49-	=49-	=49-	=49-	=49-	=49-	=49-	=49-	=49-	=49-	=49-	=49-	=49-	=49-	=49-	=49-
*	*	*	*	*custos:b	*	*	*	*	*	*	*	*	*	*	*
!LO:LB:g=original	!	!LO:LB:g=original	!	!	!	!	!	!	!	!	!	!	!	!	!
2c/	-ae	2g\	-ae	2cc\	-ae	2ee\	-ae	2r	.	2r	.	2r	.	2r	.
*	*	*	*	*	*	*	*	*	*	*custos:a	*	*	*	*	*
!	!	!	!	!LO:LB:g=original	!	!	!	!	!	!	!	!	!	!	!
2r	.	2r	.	2r	.	2r	.	2c/	et	2g\	et	2cc\	et	2gg\	et
*	*	*	*	*	*Xij	*	*	*	*	*	*	*	*	*	*
=50-	=50-	=50-	=50-	=50-	=50-	=50-	=50-	=50-	=50-	=50-	=50-	=50-	=50-	=50-	=50-
!	!	!	!	!	!	!	!	!	!	!LO:LB:g=original	!	!	!	!	!
1r	.	1r	.	1r	.	1r	.	4f\	Ve-	4a\	Ve-	4cc\	Ve-	4ff\	Ve-
.	.	.	.	.	.	.	.	4c/	-ri-	4g\	-ri-	4cc\	-ri-	4ee\	-ri-
.	.	.	.	.	.	.	.	2G/	-ta-	2g\	-ta-	2b\	-ta-	2dd\	-ta-
=51-	=51-	=51-	=51-	=51-	=51-	=51-	=51-	=51-	=51-	=51-	=51-	=51-	=51-	=51-	=51-
2r	.	2r	.	2r	.	2r	.	2c/	-tis,	2g\	-t[is],	2cc\	-tis,	2ee\	-tis
1g\	Ple-	1g\	Ple-	1b\	Ple-	1dd\	Ple-	2r	.	2r	.	2r	.	2r	.
=52-	=52-	=52-	=52-	=52-	=52-	=52-	=52-	=52-	=52-	=52-	=52-	=52-	=52-	=52-	=52-
.	.	.	.	.	.	.	.	0r	.	0r	.	0r	.	0r	.
2g\	-num	2g\	-num	2b\	-num	2dd\	-num	.	.	.	.	.	.	.	.
=53-	=53-	=53-	=53-	=53-	=53-	=53-	=53-	=53-	=53-	=53-	=53-	=53-	=53-	=53-	=53-
2.d\	gra-	2.a\	gra-	2.dd\	gra-	2.ff\	gra-	.	.	.	.	.	.	.	.
4d\	-ti-	4a\	-ti-	4dd\	-ti-	4ff\	-ti-	.	.	.	.	.	.	.	.
=54-	=54-	=54-	=54-	=54-	=54-	=54-	=54-	=54-	=54-	=54-	=54-	=54-	=54-	=54-	=54-
!	!	!	!	!LO:TX:t=P:problem=# below	!	!	!	!	!	!	!	!	!	!	!
2A/	-ae	2a\	-ae	2cc#X\	-ae	2ee\	-ae.	2r	.	2r	.	2r	.	2r	.
2r	.	2r	.	2r	.	2r	.	2c/	et	2g\	et	2cc\	et	2ee\	et
=55-	=55-	=55-	=55-	=55-	=55-	=55-	=55-	=55-	=55-	=55-	=55-	=55-	=55-	=55-	=55-
1r	.	1r	.	1r	.	1r	.	4f\	Ve-	4a\	Ve-	4a\	Ve-	4cc\	Ve-
*	*	*	*	*	*	*	*	*	*	*	*	*custos:b	*	*	*
.	.	.	.	.	.	.	.	4a\	-ri-	4cc\	-ri-	4a\	-ri-	4cc\	-ri-
!	!	!	!	!	!	!	!	!	!	!	!	!LO:LB:g=original	!	!	!
.	.	.	.	.	.	.	.	2g\	-ta-	2g\	-ta-	2b\	-ta-	2dd\	-ta-
=56-	=56-	=56-	=56-	=56-	=56-	=56-	=56-	=56-	=56-	=56-	=56-	=56-	=56-	=56-	=56-
*	*	*	*	*	*	*	*	*custos:d	*	*	*	*	*	*	*
2r	.	2r	.	2r	.	2r	.	2c/	-tis.	2g\	-tis	2cc\	-tis	2ee\	-tis
!	!	!	!	!	!	!	!	!LO:PB:g=original	!	!	!	!	!	!	!
2c/	et	2g\	et	2ccny\	et	2ee\	et	2r	.	2r	.	2r	.	2r	.
=57-	=57-	=57-	=57-	=57-	=57-	=57-	=57-	=57-	=57-	=57-	=57-	=57-	=57-	=57-	=57-
4f\	Ve-	4a\	Ve-	4a\	Ve-	4ff\	Ve-	1r	.	1r	.	1r	.	1r	.
4d\	-ri-	4a\	-ri-	4dd\	-ri-	4ff\	-ri-	.	.	.	.	.	.	.	.
!	!	!LO:TX:t=P:problem=# below	!	!	!	!	!	!	!	!	!	!	!	!	!
2e\	-ta-	2g#X\	-ta-	2b\	-ta-	2ee\	-ta-	.	.	.	.	.	.	.	.
=58-	=58-	=58-	=58-	=58-	=58-	=58-	=58-	=58-	=58-	=58-	=58-	=58-	=58-	=58-	=58-
!	!	!	!	!LO:TX:t=P:problem=# below	!	!	!	!	!	!	!	!	!	!	!
2A/,	-tis,	2a,\	-tis,	2cc#X\	-tis,	2ee,\	-tis,	2r	.	2r	.	2r	.	2r	.
2d\	et	2a\	et	2a\	Et	2dd\	et	2d\	et	2a\	et	2dd\	Et	2ff\	et
=59-	=59-	=59-	=59-	=59-	=59-	=59-	=59-	=59-	=59-	=59-	=59-	=59-	=59-	=59-	=59-
2a\	Ve-	2a\	Ve-	2a\	Ve-	2ee\	Ve-	4A/	Ve-	2a\	Ve-	2cc\	Ve-	2ee\	Ve-
.	.	.	.	.	.	.	.	4B/	.	.	.	.	.	.	.
2a\	-ri-	2e/	-ri-	2.a\	-ri-	2ee\	-ri-	4c/	ri-	2a\	-ri-	2cc\	-ri-	2ee\	-ri-
.	.	.	.	.	.	.	.	4d\	.	.	.	.	.	.	.
=60-	=60-	=60-	=60-	=60-	=60-	=60-	=60-	=60-	=60-	=60-	=60-	=60-	=60-	=60-	=60-
1e	-ta-	1e	-ta-	.	.	1ee	-ta-	1e	-ta-	1b	-ta-	1b	-ta-	1ee	-ta-
.	.	.	.	8g/L	.	.	.	.	.	.	.	.	.	.	.
.	.	.	.	8f/J	.	.	.	.	.	.	.	.	.	.	.
!	!	!	!	!LO:TX:t=P:problem=# below	!	!	!	!	!	!	!	!	!	!	!
.	.	.	.	2g#X/	-ta-	.	.	.	.	.	.	.	.	.	.
=61-	=61-	=61-	=61-	=61-	=61-	=61-	=61-	=61-	=61-	=61-	=61-	=61-	=61-	=61-	=61-
*	*	*	*	*	*	*custos:ee	*	*	*	*	*	*	*	*	*
!	!	!	!	!	!	!LO:TX:t=P:problem=# below	!	!	!	!	!	!LO:TX:t=P:problem=# below	!	!	!
1a,	-tis,	1e	-tis	1a	-tis	1cc#X	-tis	1A	-tis	1a	-tis	1cc#X	-tis	1ee	-tis
=62-	=62-	=62-	=62-	=62-	=62-	=62-	=62-	=62-	=62-	=62-	=62-	=62-	=62-	=62-	=62-
!	!	!	!	!	!	!LO:PB:g=original	!	!	!	!	!	!	!	!	!
2.c/	O-	2.e/	O-	2.ccny\	O-	2.ee\	O-	2.c/	O-	2.g\	O-	2.ccny\	O-	2.gg\	O-
4c/	-mni-	4e/	-mni-	4cc\	-mni-	4ee\	-mni-	4c/	-mni-	4g\	-mni-	4cc\	-mni-	4gg\	-mni-
=63-	=63-	=63-	=63-	=63-	=63-	=63-	=63-	=63-	=63-	=63-	=63-	=63-	=63-	=63-	=63-
*custos:g	*	*	*	*	*	*	*	*	*	*	*	*	*	*custos:dd	*
2c/	-a.	2gny\	-a	2cc\	-a	2ccny\	-a	2c/	-a	2g\	-a	2g/	-a	2ee\	-a
*	*	*	*	*custos:a	*	*	*	*	*	*	*	*	*	*	*
!LO:PB:g=original	!	!	!	!	!	!	!	!	!	!	!	!	!	!LO:LB:g=original	!
2g\	per	2d/	per	2b\	per	2dd\	per	2G/	per	2g\	per	2b\	per	2dd\	per
=64-	=64-	=64-	=64-	=64-	=64-	=64-	=64-	=64-	=64-	=64-	=64-	=64-	=64-	=64-	=64-
!	!	!	!	!LO:PB:g=original	!	!	!	!	!	!	!	!	!	!	!
2d\	i-	2d/	i-	2a\	i-	2dd\	i-	2d\	i-	2a\	i-	2a\	i-	2ff\	[i]-
2d\	-psum	2d/	-psum	2a\	-psum	2dd\	-psum	2d\	-psum	2a\	-psum	2a\	-psum	2ff\	-psum
=65-	=65-	=65-	=65-	=65-	=65-	=65-	=65-	=65-	=65-	=65-	=65-	=65-	=65-	=65-	=65-
2a\	fa-	2a\	fa-	2a\	fa-	2cc\	fa-	2A/	fa-	2e/	fa-	2cc\	fa-	2ee\	fa-
!	!	!	!	!	!	!LO:TX:t=P:problem=# below	!	!	!	!	!	!	!	!	!
2a\	-cta	2e/	-cta	2a\	-cta	2cc#X\	-cta	2A/	-cta	2a\	-cta	2a\	-cta	2ee\	-cta
=66-	=66-	=66-	=66-	=66-	=66-	=66-	=66-	=66-	=66-	=66-	=66-	=66-	=66-	=66-	=66-
*	*	*custos:g	*	*	*	*	*	*	*	*	*	*	*	*	*
1d	ſunt	1a	ſunt	1a	ſunt	1dd	ſunt	1d	ſunt	1a	ſunt	1a	ſunt	1dd,	ſunt,
=67-	=67-	=67-	=67-	=67-	=67-	=67-	=67-	=67-	=67-	=67-	=67-	=67-	=67-	=67-	=67-
!	!	!LO:LB:g=original	!	!	!	!	!	!	!	!LO:PB:g=original	!	!	!	!	!
0r	.	0r	.	0r	.	0r	.	0r	.	0r	.	0r	.	1ee	Et
=68-	=68-	=68-	=68-	=68-	=68-	=68-	=68-	=68-	=68-	=68-	=68-	=68-	=68-	=68-	=68-
.	.	.	.	.	.	.	.	.	.	.	.	.	.	2ee\	ſi-
.	.	.	.	.	.	.	.	.	.	.	.	.	.	2dd\	-ne
=69-	=69-	=69-	=69-	=69-	=69-	=69-	=69-	=69-	=69-	=69-	=69-	=69-	=69-	=69-	=69-
1r	.	1r	.	1r	.	1r	.	1r	.	1r	.	1r	.	2cc\	i-
.	.	.	.	.	.	.	.	.	.	.	.	.	.	2b/	-pso,
=70-	=70-	=70-	=70-	=70-	=70-	=70-	=70-	=70-	=70-	=70-	=70-	=70-	=70-	=70-	=70-
2c/	ni-	2g\	Ni-	2cc\	ni-	2ee\	ni-	2c/	ni-	2g\	ni-	2cc\	ni-	1r	.
2G/	-hil	2d/	-hil,	2dd\	-hil	2dd\	-hil	2g\	-hil	2g\	-hil	2b\	-hil	.	.
=71-	=71-	=71-	=71-	=71-	=71-	=71-	=71-	=71-	=71-	=71-	=71-	=71-	=71-	=71-	=71-
0r	.	0r	.	0r	.	0r	.	0r	.	0r	.	0r	.	1ff	Et
=72-	=72-	=72-	=72-	=72-	=72-	=72-	=72-	=72-	=72-	=72-	=72-	=72-	=72-	=72-	=72-
.	.	.	.	.	.	.	.	.	.	.	.	.	.	2ff\	ſi-
.	.	.	.	.	.	.	.	.	.	.	.	.	.	2ee\	-ne
=73-	=73-	=73-	=73-	=73-	=73-	=73-	=73-	=73-	=73-	=73-	=73-	=73-	=73-	=73-	=73-
*	*	*	*	*	*	*	*	*	*	*	*	*custos:dd	*	*	*
1r	.	1r	.	1r	.	1r	.	1r	.	1r	.	1r	.	2dd\	i-
.	.	.	.	.	.	.	.	.	.	.	.	.	.	2cc\	-pso,
=74-	=74-	=74-	=74-	=74-	=74-	=74-	=74-	=74-	=74-	=74-	=74-	=74-	=74-	=74-	=74-
!	!	!	!	!	!	!	!	!	!	!	!	!LO:LB:g=original	!	!	!
2d\	ni-	2a\	ni-	2dd\	ni-	2ff\	ni-	2d\	ni-	2a\	ni-	2dd\	ni-	1r	.
!	!	!	!	!	!	!	!	!	!	!	!	!LO:TX:t=P:problem=# below	!	!	!
2a\	-hil	2e/	-hil,	2ee\	-hil	2ee\	-hil	2A/	-hil	2a\	-hil	2cc#X\	-hil	.	.
=75-	=75-	=75-	=75-	=75-	=75-	=75-	=75-	=75-	=75-	=75-	=75-	=75-	=75-	=75-	=75-
*	*	*	*	*	*	*	*	*	*	*	*	*	*	*	*ij
0r	.	0r	.	0r	.	0r	.	0r	.	0r	.	0r	.	1gg	Et
=76-	=76-	=76-	=76-	=76-	=76-	=76-	=76-	=76-	=76-	=76-	=76-	=76-	=76-	=76-	=76-
.	.	.	.	.	.	.	.	.	.	.	.	.	.	2gg\	ſi-
.	.	.	.	.	.	.	.	.	.	.	.	.	.	2ff\	-ne
=77-	=77-	=77-	=77-	=77-	=77-	=77-	=77-	=77-	=77-	=77-	=77-	=77-	=77-	=77-	=77-
*	*	*	*	*	*	*	*	*custos:d	*	*	*	*	*	*	*
1r	.	1r	.	1r	.	1r	.	1r	.	1r	.	1r	.	2ee\	i-
*	*	*	*	*	*	*	*	*	*	*	*	*	*	*custos:ff	*
.	.	.	.	.	.	.	.	.	.	.	.	.	.	2dd\	-pso,
=78-	=78-	=78-	=78-	=78-	=78-	=78-	=78-	=78-	=78-	=78-	=78-	=78-	=78-	=78-	=78-
!	!	!	!	!	!	!	!	!LO:LB:g=original	!	!	!	!	!	!LO:PB:g=original	!
2d\	ni-	2a\	ni-	2dd\	ni-	2ff\	ni-	2d\	ni-	2a\	ni-	2dd\	ni-	1r	.
!	!	!	!	!	!	!	!	!	!	!	!	!LO:TX:t=P:problem=# below	!	!	!
2a\	-hil	2e/	-hil	2ee\	-hil	2ee\	-hil	2A/	-hil	2a\	-hil	2cc#X\	-hil	.	.
*	*	*	*	*	*	*	*	*	*	*	*	*	*	*	*Xij
=79-	=79-	=79-	=79-	=79-	=79-	=79-	=79-	=79-	=79-	=79-	=79-	=79-	=79-	=79-	=79-
1d	fa-	1d	fa-	1dd	fa-	1dd	fa-	1d	fa-	1a	fa-	1a	fa-	1ff	fa-
=80-	=80-	=80-	=80-	=80-	=80-	=80-	=80-	=80-	=80-	=80-	=80-	=80-	=80-	=80-	=80-
2d\	-ctum	2a\	-ctum	2a\	-ctum	2dd\	-ctum	2d\	-ctum	2d/	-ctum	2a\	-ctum	2ff\	-ctum
*	*	*	*	*	*	*custos:dd	*	*	*	*	*	*	*	*	*
2a\	eſt	2e/,	eſt,	2cc\	eſt	2ee\	eſt	2A/	eſt	2.a\	.	2a\	eſt	2ee\	eſt
=81-	=81-	=81-	=81-	=81-	=81-	=81-	=81-	=81-	=81-	=81-	=81-	=81-	=81-	=81-	=81-
!	!	!	!	!	!	!LO:LB:g=original	!	!	!	!	!	!	!	!	!
1e	ni-	1e	ni-	1b	ni-	1ee	ni-	1e	ni-	.	.	1b	ni-	1ee	ni-
.	.	.	.	.	.	.	.	.	.	8g\L	est	.	.	.	.
.	.	.	.	.	.	.	.	.	.	8f\J	.	.	.	.	.
!	!	!	!	!	!	!	!	!	!	!LO:TX:t=P:problem=# below	!	!	!	!	!
.	.	.	.	.	.	.	.	.	.	2g#X\	ni-	.	.	.	.
=82-	=82-	=82-	=82-	=82-	=82-	=82-	=82-	=82-	=82-	=82-	=82-	=82-	=82-	=82-	=82-
*custos:c	*	*	*	*	*	*	*	*	*	*	*	*	*	*	*
!	!	!	!	!LO:TX:t=P:problem=# below	!	!LO:TX:t=P:problem=# below	!	!	!	!	!	!	!	!	!
1a	-hil	1e,	-hil	1cc#X	-hil	1cc#X	-hil	1A	-hil	1a	-hil.	1a	-hil	1ee	-hil
=83-	=83-	=83-	=83-	=83-	=83-	=83-	=83-	=83-	=83-	=83-	=83-	=83-	=83-	=83-	=83-
!LO:LB:g=original	!	!	!	!	!	!	!	!	!	!	!	!	!	!	!
1c	Glo-	1g	Glo-	1ccny	Glo-	1ee	Glo-	0r	.	0r	.	0r	.	0r	.
=84-	=84-	=84-	=84-	=84-	=84-	=84-	=84-	=84-	=84-	=84-	=84-	=84-	=84-	=84-	=84-
2G/	-ri-	2g\	-ri-	2b\	-ri-	2dd\	-ri-	.	.	.	.	.	.	.	.
*	*	*	*	*custos:a	*	*	*	*	*	*	*	*	*	*	*
2G/	-a	2g\	-a	2b\	-a	2dd\	-a	.	.	.	.	.	.	.	.
=85-	=85-	=85-	=85-	=85-	=85-	=85-	=85-	=85-	=85-	=85-	=85-	=85-	=85-	=85-	=85-
!	!	!	!	!LO:LB:g=original	!	!	!	!	!	!	!	!	!	!	!
4A/	Pa-	1e	Pa-	1a	Pa-	1ccny	Pa-	1r	.	1r	.	1r	.	1r	.
4B/	.	.	.	.	.	.	.	.	.	.	.	.	.	.	.
4c/	.	.	.	.	.	.	.	.	.	.	.	.	.	.	.
4d\	.	.	.	.	.	.	.	.	.	.	.	.	.	.	.
=86-	=86-	=86-	=86-	=86-	=86-	=86-	=86-	=86-	=86-	=86-	=86-	=86-	=86-	=86-	=86-
2e\	-tri	2e/	-tri	2gny/	-tri	2b/	-tri	2r	.	2r	.	2r	.	2r	.
2r	.	2r	.	2r	.	2r	.	2G/	et	2b\	et	2dd\	et	2gg\	Et
=87-	=87-	=87-	=87-	=87-	=87-	=87-	=87-	=87-	=87-	=87-	=87-	=87-	=87-	=87-	=87-
1r	.	1r	.	1r	.	1r	.	2c/	Fi-	2cc\	Fi-	2ee\	Fi-	2gg\	fi-
.	.	.	.	.	.	.	.	2d\	-li-	2a\	-li-	2dd\	-li-	2ff\	-li-
=88-	=88-	=88-	=88-	=88-	=88-	=88-	=88-	=88-	=88-	=88-	=88-	=88-	=88-	=88-	=88-
!	!	!	!	!	!	!	!	!	!	!	!	!LO:TX:t=P:problem=# below	!	!	!
2r	.	2r	.	2r	.	2r	.	2A/	-o	2a\	-o	2cc#X\	-o	2ee\	-o
*	*	*	*	*	*	*	*	*	*	*custos:g	*	*	*	*	*
2A/	et	2a\	et	2cc\	et	2ee\	et	2r	.	2r	.	2r	.	2r	.
=89-	=89-	=89-	=89-	=89-	=89-	=89-	=89-	=89-	=89-	=89-	=89-	=89-	=89-	=89-	=89-
!	!	!	!	!	!	!	!	!	!	!LO:LB:g=original	!	!	!	!	!
2.d\	spi-	2.a\	spi-	2.dd\	spi-	2.ff\	spi-	00r	.	00r	.	00r	.	00r	.
4c/	-ri-	4a\	-ri-	4ee\	-ri-	4ee\	-ri-	.	.	.	.	.	.	.	.
=90-	=90-	=90-	=90-	=90-	=90-	=90-	=90-	=90-	=90-	=90-	=90-	=90-	=90-	=90-	=90-
2d\	-tu-	2a\	-tu-	2dd\	-tu-	2ff\	-tu-	.	.	.	.	.	.	.	.
2A/	-i	2a\	-i	2cc\	-i	2ee\	-i	.	.	.	.	.	.	.	.
=91-	=91-	=91-	=91-	=91-	=91-	=91-	=91-	=91-	=91-	=91-	=91-	=91-	=91-	=91-	=91-
1e	san-	1a	ſan-	1cc	san-	1ee	san-	.	.	.	.	.	.	.	.
=92-	=92-	=92-	=92-	=92-	=92-	=92-	=92-	=92-	=92-	=92-	=92-	=92-	=92-	=92-	=92-
!	!	!	!	!LO:TX:t=P:problem=# below	!	!	!	!	!	!	!	!	!	!	!
1A	-cto	1a,	-cto,	1cc#X,	-cto,	1ee	-cto,	.	.	.	.	.	.	.	.
=93-	=93-	=93-	=93-	=93-	=93-	=93-	=93-	=93-	=93-	=93-	=93-	=93-	=93-	=93-	=93-
*	*	*	*ij	*	*ij	*	*ij	*	*	*	*	*	*	*	*
1g	et	1d	et	1b	et	1dd	et	1G	et	1gny	et	1dd	et	1gg	Et
=94-	=94-	=94-	=94-	=94-	=94-	=94-	=94-	=94-	=94-	=94-	=94-	=94-	=94-	=94-	=94-
2d\	spi-	2a\	spi-	2a\	spi-	2dd\	spi-	2d\	spi-	2a\	spi-	2dd\	spi-	2ff\	spi-
*	*	*	*	*	*	*	*	*	*	*	*	*custos:dd	*	*	*
!	!	!	!	!	!	!	!	!	!	!	!	!LO:TX:t=P:problem=# below	!	!	!
2a\	-ri-	2a\	-ri-	2cc#\	-ri-	2ee\	-ri-	2A/	-ri-	2a\	-ri-	2cc#X\	-ri-	2ee\	-ri-
=95-	=95-	=95-	=95-	=95-	=95-	=95-	=95-	=95-	=95-	=95-	=95-	=95-	=95-	=95-	=95-
!	!	!	!	!	!	!	!	!	!	!	!	!LO:LB:g=original	!	!	!
2d\	-tu-	2a\	-tu-	2a\	-tu-	2dd\	-tu-	2d\	-tu-	2a\	-tu-	2dd\	-tu-	2ff\	-tu-
2a\	-i	2a\	-i	2cc#\	-i	2ee\	-i	2A/	-i	1a\	-i	2ccny\	-i	2ee\	-i
=96-	=96-	=96-	=96-	=96-	=96-	=96-	=96-	=96-	=96-	=96-	=96-	=96-	=96-	=96-	=96-
!	!	!	!	!	!	!LO:TX:t=P:problem=kreska pseudotaktowa przerywana	!	!	!	!	!	!	!	!	!
!	!	!	!	!	!	!LO:TX:t=P:problem=# below	!	!	!	!	!	!	!	!	!
0e	san-	0e	ſan-	0b	san-	0ee#	san-	0e	san-	.	.	0b	ſan-	0ee	san-
.	.	.	.	.	.	.	.	.	.	4g\	ſan-	.	.	.	.
.	.	.	.	.	.	.	.	.	.	4f\	.	.	.	.	.
=97-	=97-	=97-	=97-	=97-	=97-	=97-	=97-	=97-	=97-	=97-	=97-	=97-	=97-	=97-	=97-
!	!	!	!	!	!	!	!	!	!	!LO:TX:t=P:problem=# below	!	!	!	!	!
.	.	.	.	.	.	.	.	.	.	1g#X	.	.	.	.	.
=98-	=98-	=98-	=98-	=98-	=98-	=98-	=98-	=98-	=98-	=98-	=98-	=98-	=98-	=98-	=98-
!	!	!	!	!	!	!LO:SIC:v:s=00cc#	!	!	!	!LO:N:vis=00	!	!LO:N:vis=00	!	!LO:N:vis=00	!
!	!	!	!	!	!	!	!	!	!	!LO:TX:t=In Epithania D(omi)ni.:color=red	!	!	!	!	!
00a	-cto.	00e;	-cto,	00a;	-cto,	00cc;	-cto,	00A;	-cto.	00a;	-cto.	00cc#X;	-cto.	00ee;	-cto.
==	==	==	==	==	==	==	==	==	==	==	==	==	==	==	==
*-	*-	*-	*-	*-	*-	*-	*-	*-	*-	*-	*-	*-	*-	*-	*-
!!!system-decoration: [(s1,s2,s3,s4)][(s5,s6,s7,s8)]
!!!AIN: 8 empty
!!!ENC: Katarzyna Serwa
!!!END: 2021-10-22
!!!ENC: Anastazja Marusiak
!!!END: 2021-10-16
